src/images/networks/manta.svg

<svg width="43" height="43" viewBox="0 0 43 43" fill="none" xmlns="http://www.w3.org/2000/svg">
<path class='bg' fill-rule="evenodd" clip-rule="evenodd" d="M9.99645 36.9198C5.30212 33.412 2.26316 27.8109 2.26316 21.5C2.26316 10.8758 10.8758 2.26316 21.5 2.26316C30.2684 2.26316 39.8438 7.50318 42.1595 15.5284C39.5717 6.56052 31.3035 0 21.5 0C9.6259 0 0 9.62591 0 21.5C0 33.3741 9.6259 43 21.5 43C33.3741 43 43 33.3741 43 21.5V20.3684L41.8188 20.3682C41.7837 20.3679 41.7306 20.3674 41.6614 20.3663C41.5229 20.3642 41.3199 20.36 41.0668 20.3514C40.5599 20.3342 39.8553 20.2997 39.066 20.2311C37.4527 20.0908 35.6131 19.817 34.3601 19.3165C32.3442 18.5114 31.2061 17.4442 29.9056 16.1953L29.8305 16.1232C28.5277 14.8717 27.0642 13.4658 24.5278 12.2721C22.029 11.0962 19.2659 11.2849 17.2355 11.7027C16.2044 11.9148 15.3212 12.1946 14.6946 12.4215C14.3805 12.5352 14.1287 12.6365 13.9526 12.7106C12.9309 13.1408 11.9391 13.6498 10.9364 14.122C10.9364 14.122 12.9038 14.6617 13.8769 14.963C13.9121 14.9738 13.967 14.9913 14.0389 15.0155C14.1829 15.064 14.3935 15.1391 14.6484 15.2423C15.1617 15.45 15.8368 15.7644 16.5032 16.1928C17.5528 16.8676 18.4231 17.7165 18.78 18.7587C16.5518 19.0516 14.462 20.0297 12.8991 20.949C11.9515 21.5064 11.1634 22.0627 10.6111 22.4805C10.3344 22.6898 10.1155 22.8653 9.96381 22.9902C9.83651 23.095 7.82475 24.8684 7.82475 24.8684C7.82475 24.8684 10.4202 25.1444 11.701 25.4025C12.553 25.5742 13.7018 25.8505 14.9 26.2686C16.1038 26.6886 17.3198 27.2388 18.3289 27.9432C19.3401 28.649 20.0807 29.465 20.4462 30.3992C21.5106 33.1194 20.4662 35.7692 18.3691 37.2598C16.2969 38.7327 13.1465 39.0829 9.99645 36.9198ZM17.3322 40.2841C18.1794 40.0089 18.9702 39.6092 19.6802 39.1044C22.5338 37.0762 24.0354 33.3609 22.5538 29.5745C21.9717 28.087 20.8594 26.9495 19.6243 26.0874C18.387 25.2238 16.9633 24.5915 15.6456 24.1318C14.7792 23.8295 13.9424 23.5961 13.2094 23.419C13.4694 23.2494 13.7495 23.0745 14.0466 22.8997C15.7883 21.8751 17.9819 20.9342 20.0855 20.9342C23.2562 20.9342 25.6176 21.9071 27.8722 22.9512C28.0772 23.046 28.2829 23.1426 28.4897 23.2396C30.5044 24.1848 32.6205 25.1776 35.079 25.1776C37.4632 25.1776 39.3202 24.5036 40.6 23.8065C39.4605 33.3432 31.3437 40.7369 21.5 40.7369C20.0689 40.7369 18.6742 40.5805 17.3322 40.2841ZM38.1546 22.4164C37.3073 22.7056 36.2801 22.9145 35.079 22.9145C33.1503 22.9145 31.4933 22.1419 29.3897 21.161C29.2045 21.0747 29.0158 20.9867 28.8232 20.8975C26.7169 19.9221 24.28 18.8884 21.1079 18.7011C20.6823 16.6008 19.0905 15.1656 17.727 14.2891C17.5751 14.1914 17.4235 14.099 17.2734 14.0116C17.4094 13.9796 17.549 13.9487 17.6916 13.9194C19.5239 13.5423 21.7114 13.4481 23.5641 14.3199C25.763 15.3547 27.0034 16.5459 28.2939 17.7853L28.338 17.8277C29.6659 19.1029 31.0704 20.4397 33.5207 21.4183C34.882 21.9619 36.6437 22.2543 38.1546 22.4164Z" fill="url(#paint0_linear_206_81)"/>
<defs>
<linearGradient id="paint0_linear_206_81" x1="0" y1="43" x2="43.7711" y2="42.2002" gradientUnits="userSpaceOnUse">
<stop stop-color="#29CCB9"/>
<stop offset="0.494792" stop-color="#0091FF"/>
<stop offset="1" stop-color="#FF66B7"/>
</linearGradient>
</defs>
</svg>

<svg xmlns="http://www.w3.org/2000/svg" width="43" height="43" fill="none"><path fill="url(#a)" fill-rule="evenodd" d="M9.996 36.92c-4.694-3.508-7.733-9.11-7.733-15.42 0-10.624 8.613-19.237 19.237-19.237 8.768 0 18.344 5.24 20.66 13.265C39.572 6.561 31.304 0 21.5 0 9.626 0 0 9.626 0 21.5S9.626 43 21.5 43 43 33.374 43 21.5v-1.132h-1.181q-.053 0-.158-.002a38.541 38.541 0 0 1-2.595-.135c-1.613-.14-3.453-.414-4.706-.914-2.016-.806-3.154-1.873-4.454-3.122l-.075-.072c-1.303-1.251-2.767-2.657-5.303-3.85-2.499-1.177-5.262-.988-7.292-.57a18.5 18.5 0 0 0-3.283 1.008c-1.022.43-2.014.939-3.017 1.411 0 0 1.968.54 2.94.841q.054.015.163.053a11.379 11.379 0 0 1 2.464 1.177c1.05.675 1.92 1.523 2.277 2.566-2.228.293-4.318 1.27-5.88 2.19a24 24 0 0 0-2.936 2.041c-.127.105-2.14 1.878-2.14 1.878s2.596.276 3.877.535c.852.171 2 .448 3.199.866 1.204.42 2.42.97 3.429 1.674 1.011.706 1.752 1.522 2.117 2.456 1.065 2.72.02 5.37-2.077 6.86-2.072 1.474-5.222 1.824-8.373-.34m7.336 3.364a8.7 8.7 0 0 0 2.348-1.18c2.854-2.028 4.355-5.743 2.874-9.53-.582-1.487-1.695-2.625-2.93-3.487-1.237-.863-2.66-1.495-3.978-1.955a26 26 0 0 0-2.437-.713q.39-.256.838-.52c1.741-1.024 3.935-1.965 6.038-1.965 3.171 0 5.533.973 7.787 2.017l.618.289c2.014.945 4.13 1.938 6.589 1.938 2.384 0 4.241-.674 5.521-1.372-1.14 9.537-9.256 16.93-19.1 16.93-1.431 0-2.826-.155-4.168-.452m20.823-17.868a9.5 9.5 0 0 1-3.076.498c-1.929 0-3.586-.772-5.69-1.753l-.566-.264c-2.106-.975-4.543-2.009-7.715-2.196-.426-2.1-2.018-3.535-3.381-4.412q-.228-.147-.454-.277.204-.048.419-.093c1.832-.377 4.02-.47 5.872.4 2.199 1.036 3.44 2.227 4.73 3.466l.044.043c1.328 1.275 2.732 2.612 5.183 3.59 1.361.544 3.123.836 4.634.998" class="bg" clip-rule="evenodd"/><defs><linearGradient id="a" x1="0" x2="43.771" y1="43" y2="42.2" gradientUnits="userSpaceOnUse"><stop stop-color="#29CCB9"/><stop offset=".495" stop-color="#0091FF"/><stop offset="1" stop-color="#FF66B7"/></linearGradient></defs></svg>
